packages/foundations/assets/icons/functional/images/security/key_12.svg

<svg width="12" height="12" viewBox="0 0 12 12" fill="none" xmlns="http://www.w3.org/2000/svg">
<g clip-path="url(#clip0_232_427)">
<path fill-rule="evenodd" clip-rule="evenodd" d="M9.06483 1.2648L10.1364 1.2708C10.3842 1.278 10.653 1.5516 10.671 1.8516L10.8 4.1388C10.779 4.4346 10.5486 4.68 10.2456 4.713L9.57603 4.7856L9.48243 5.5506C9.42243 5.7786 9.23763 5.9562 9.00123 6.0036L8.12403 6.1788C8.09992 6.2028 8.0662 6.23642 8.02665 6.2759L7.55761 6.74462L7.49403 6.8082C7.77483 8.1018 7.31523 9.1356 6.64863 9.8016C5.40963 11.0406 3.38643 11.0538 2.13483 9.8016C0.882631 8.55 0.894031 6.528 2.13483 5.2878C2.80083 4.6218 3.73083 4.2894 4.61883 4.3602L7.53843 1.4484C7.66443 1.3224 7.83483 1.2642 7.97283 1.2642L9.06483 1.2648ZM8.21883 2.4642L5.07483 5.5998L4.52403 5.5566C4.47723 5.5524 4.43043 5.5506 4.38363 5.5506C3.86583 5.5506 3.35523 5.7642 2.98323 6.1368C2.60823 6.5112 2.40063 7.0104 2.40003 7.5426C2.39943 8.0754 2.60643 8.5764 2.98323 8.9538C3.35883 9.3294 3.85863 9.5358 4.39023 9.5358C4.92423 9.5358 5.42463 9.3294 5.79963 8.9538C6.14943 8.6046 6.52323 7.9926 6.32163 7.0626L6.18303 6.4242L7.53303 5.073L8.35203 4.9092L8.50023 3.6942L9.56643 3.5796L9.50343 2.4672L8.21883 2.4642ZM5.04009 6.89622C5.39829 7.25442 5.39829 7.83522 5.04009 8.19342C4.68189 8.55162 4.10109 8.55162 3.74289 8.19342C3.38469 7.83522 3.38469 7.25442 3.74289 6.89622C4.10109 6.53802 4.68189 6.53802 5.04009 6.89622Z" fill="#1A1C1F"/>
</g>
<defs>
<clipPath id="clip0_232_427">
<rect width="12" height="12" fill="white"/>
</clipPath>
</defs>
</svg>

<svg xmlns="http://www.w3.org/2000/svg" width="12" height="12" fill="none"><g clip-path="url(#a)"><path fill="#1A1C1F" fill-rule="evenodd" d="m9.065 1.265 1.071.006c.248.007.517.28.535.58L10.8 4.14a.62.62 0 0 1-.554.574l-.67.073-.094.765a.62.62 0 0 1-.48.453l-.878.175-.097.097-.47.469-.063.063c.28 1.294-.179 2.328-.845 2.994a3.192 3.192 0 1 1-2.03-5.441l2.92-2.913a.64.64 0 0 1 .434-.184zm-.846 1.2L5.075 5.6l-.551-.043a1.996 1.996 0 0 0-1.54 3.397c.375.375.875.582 1.406.582.534 0 1.035-.207 1.41-.582.35-.35.723-.961.522-1.891l-.139-.639 1.35-1.351.819-.164.148-1.215 1.066-.114-.063-1.113zM5.04 6.895a.917.917 0 1 1-1.297 1.297.917.917 0 0 1 1.297-1.297" clip-rule="evenodd"/></g><defs><clipPath id="a"><path fill="#fff" d="M0 0h12v12H0z"/></clipPath></defs></svg>
